web/ui/src/components/theme/button/svgs/on.svg

<svg height="16" viewBox="0 0 16 16" width="16" xmlns="http://www.w3.org/2000/svg"><g fill="none"><path d="m0 0h16v16h-16z" fill="#000" opacity="0"/><path d="m8 15c-3.85998438 0-7-3.1400156-7-7 0-3.85998437 3.14001562-7 7-7 3.8599844 0 7 3.14001563 7 7 0 3.8599844-3.1400156 7-7 7zm0-13c-3.3085 0-6 2.6915-6 6s2.6915 6 6 6 6-2.6915 6-6-2.6915-6-6-6zm2.9148343 6.40961596-3.62810313 2.53967224c-.22622465.1583572-.53798988.1033398-.69634713-.1228848-.05882924-.0840418-.09038404-.1841451-.09038404-.2867312v-5.07934442c0-.27614237.22385763-.5.5-.5.10258605 0 .2026894.0315548.28673117.09038404l3.62810313 2.53967222c.2262247.15835725.2812421.47012248.1228848.69634713-.0334744.04782066-.0750641.08941033-.1228848.12288479z" fill="#595959"/></g></svg>

<?xml version="1.0" encoding="UTF-8"?>
<svg width="16px" height="16px" viewBox="0 0 16 16" version="1.1" xmlns="http://www.w3.org/2000/svg" xmlns:xlink="http://www.w3.org/1999/xlink">
    <title>方向_round</title>
    <g id="页面-1" stroke="none" stroke-width="1" fill="none" fill-rule="evenodd">
        <g id="系统设计规范" transform="translate(-402.000000, -5253.000000)" fill-rule="nonzero">
            <g id="方向_round备份-2" transform="translate(402.000000, 5253.000000)">
                <rect id="矩形" fill="#000000" opacity="0" x="0" y="0" width="16" height="16"></rect>
                <path d="M8,15 C4.14001562,15 1,11.8599844 1,8 C1,4.14001563 4.14001562,1 8,1 C11.8599844,1 15,4.14001563 15,8 C15,11.8599844 11.8599844,15 8,15 Z M8,2 C4.6915,2 2,4.6915 2,8 C2,11.3085 4.6915,14 8,14 C11.3085,14 14,11.3085 14,8 C14,4.6915 11.3085,2 8,2 Z M10.9148343,8.40961596 L7.28673117,10.9492882 C7.06050652,11.1076454 6.74874129,11.052628 6.59038404,10.8264034 C6.5315548,10.7423616 6.5,10.6422583 6.5,10.5396722 L6.5,5.46032778 C6.5,5.18418541 6.72385763,4.96032778 7,4.96032778 C7.10258605,4.96032778 7.2026894,4.99188258 7.28673117,5.05071182 L10.9148343,7.59038404 C11.141059,7.74874129 11.1960764,8.06050652 11.0377191,8.28673117 C11.0042447,8.33455183 10.962655,8.3761415 10.9148343,8.40961596 Z" id="形状" fill="#595959"></path>
            </g>
        </g>
    </g>
</svg>
